Public/hamburger.svg

<svg enable-background="new 0 0 512 512" viewBox="0 0 512 512" xmlns="http://www.w3.org/2000/svg"><path d="m501.333 96h-490.666c-5.888 0-10.667 4.779-10.667 10.667s4.779 10.667 10.667 10.667h490.667c5.888 0 10.667-4.779 10.667-10.667s-4.78-10.667-10.668-10.667z"/><path d="m501.333 245.333h-490.666c-5.888 0-10.667 4.779-10.667 10.667s4.779 10.667 10.667 10.667h490.667c5.888 0 10.667-4.779 10.667-10.667s-4.78-10.667-10.668-10.667z"/><path d="m501.333 394.667h-490.666c-5.888 0-10.667 4.778-10.667 10.666s4.779 10.667 10.667 10.667h490.667c5.888 0 10.667-4.779 10.667-10.667-.001-5.888-4.78-10.666-10.668-10.666z"/></svg>

<?xml version="1.0" encoding="iso-8859-1"?>
<!-- Generator: Adobe Illustrator 19.0.0, SVG Export Plug-In . SVG Version: 6.00 Build 0)  -->
<svg version="1.1" id="Capa_1" xmlns="http://www.w3.org/2000/svg" xmlns:xlink="http://www.w3.org/1999/xlink" x="0px" y="0px"
	 viewBox="0 0 512 512" style="enable-background:new 0 0 512 512;" xml:space="preserve">
<g>
	<g>
		<path d="M501.333,96H10.667C4.779,96,0,100.779,0,106.667s4.779,10.667,10.667,10.667h490.667c5.888,0,10.667-4.779,10.667-10.667
			S507.221,96,501.333,96z"/>
	</g>
</g>
<g>
	<g>
		<path d="M501.333,245.333H10.667C4.779,245.333,0,250.112,0,256s4.779,10.667,10.667,10.667h490.667
			c5.888,0,10.667-4.779,10.667-10.667S507.221,245.333,501.333,245.333z"/>
	</g>
</g>
<g>
	<g>
		<path d="M501.333,394.667H10.667C4.779,394.667,0,399.445,0,405.333C0,411.221,4.779,416,10.667,416h490.667
			c5.888,0,10.667-4.779,10.667-10.667C512,399.445,507.221,394.667,501.333,394.667z"/>
	</g>
</g>
<g>
</g>
<g>
</g>
<g>
</g>
<g>
</g>
<g>
</g>
<g>
</g>
<g>
</g>
<g>
</g>
<g>
</g>
<g>
</g>
<g>
</g>
<g>
</g>
<g>
</g>
<g>
</g>
<g>
</g>
</svg>
